X: 404
T: Bir Of Çeksem
C: Ahmet Gazi Ayhan
O: Turkey
F: http://compmusic.upf.edu/node/140
N: huseyni--turku--nimsofyan--bir_of_ceksem--kayseri
N: makam= huseyni
N: form= turku
N: usul= nimsofyan = 2/4
M: 2/4
L: 1/16
K: C _2/4B ^3/4f  
Q: 1/4=42
%%MIDI tuningsystem comma53
z2Bc d2d2  | dcec cBdB  | B3/2A/GA G2GG  | \
w:   |   |   | 
G2Bc dBc2  | 
w:   | 
{d}cBBA {c}BAAA  | A3A AAA2  | z2Bc d2d2  | \
w:   |   |   | 
dcec cBdB  | 
w:   | 
B3/2A/GA G2GG  | G2Bc dBc2  | {d}cBBA {c}BAAA  | 
w:   |   |   | 
A3A AAA2  | z2cd e2e2  | e2e{g}e e2e{=f}d  | \
w:   |  Bir_ of  çek sem   |  kar şı *  ki  dağ lar   | 
d{e}c2d c2cc  | 
w:  yı *  kı *  lır    | 
z2cd e2e2  | e2e{g}e e2e{=f}d  | d{e}c2d c2cc  | \
w:  Bir_ of  çek sem   |  kar şı *  ki  dağ lar   |  yı *  kı *  lır    | 
z2Bc d2d2  | 
w:  Bu gün  pos ta   | 
dcec cBdB  | BAGA G2GG  | z2Bc dBc2  | 
w:  gü nü  *  *  ca nım   |  sı kı *  *  lır    |  Sı kı lır_ a  | 
{d}cBBA {c}BAAA  | A3A AAA2  | z2cd e2e2  | \
w:  *  man_ a *  *  *  man_ a  |  man    |  El le rin  mek  | 
eee{g}e e2e{=f}d  | 
w:  tu bu  *  *  *  ge lir   | 
d{e}c{d}cd c2cc  | z2cd e2e2  | eee{g}e e2e{=f}d  | \
w:  o *  ku *  *  *  nur    |  El le rin  mek  |  tu bu  *  *  *  ge lir   | 
d{e}c{d}cd c2cc  | 
w:  o *  ku *  *  *  nur    | 
z2Bc dd3  | d{e}cec c3/2B/d3/2B/  | BAGA G2GG  | \
w:  Be nim  yü re  |  ği *  me  *  *  han *  çer   |  so ku *  *  lur    | 
z2Bc dBc2  | 
w:  So ku lur_ a  | 
{d}cBBA B{c}A2A  | A3A AAA2  | z2Bc dd3  | \
w:  *  man_ a *  *  man_ *  a  |  man    |  Be nim  yü re  | 
d{e}cec c3/2B/d3/2B/  | 
w:  ği *  me  *  *  han *  çer   | 
BAGA G2GG  | z2Bc dBc2  | {d}cBBA B{c}A2A  | \
w:  so ku *  *  lur    |  So ku lur_ a  |  *  man_ a *  *  man_ *  a  | 
A3A AAA2  | 
w:  man    | 
|


